X: 1074
T: Hiç Eşin
C: Zeki Mehmed Ağa
O: Turkey
F: http://compmusic.upf.edu/node/140
N: hicazkar--sarki--evfer--hic_esin--zeki_mehmet_aga
N: makam= hicazkar
N: form= sarki
N: usul= evfer = 9/8
M: 9/8
L: 1/16
K: C _1/4B _7/8e _7/8A ^f
Q: 1/4=120
%%MIDI tuningsystem comma53
g4 d4 _7/8baga f2g4 | de dcd3/2f/ eddc c2B2 c4  | 
w:   |   | 
Bcde f2ed agfe edd4 | f2 g2ga gfed c2d2 e3/2d/cd  | 
w:   |   | 
B2c2 cdcB BAAB c6 | Bc def2 edag feed d4  | 
w:   |   | 
zc2e defg fedc B2c2 BA | G2 A2AB AGGF EFG6  | 
w:   |   | 
GBAc Bdce defg f2g4 | z2 f4 d2ed egf2 g4  | 
w:   |   | 
fgac' c'2_7/8ba agfe edd4 | f2 g2ga gfed c2d2 e3/2d/cd  | 
w:   |   | 
B2c2 cdcB BAAB c6 | Bc def2 edag feed d4  | 
w:   |   | 
zc2e defg fedc B2c2 BA | G2 A2AB AGGF EFG6  | 
w:   |   | 
GBAc Bdce defg f2g4 | z2 f4 d2ed egf2 g4  | 
w:   |   | 
fgac' c'2_7/8ba agfe edd4 | |


